X: 3508
T: Biddy McGhee
R: jig
M: 6/8
K: Dmajor
|afd edB|dBA AFA|d2f ede|~f3 efg|
afd edB|dBA AFA|d2f ede|gdc d3:|:
faf ~g3|faf fed|faf g2g|afd efd|
faf ~g3|faf fed|f2f ede|fdc d3:|

